X:1
T:Title
%%score ( 1 2 ) { ( 3 5 ) | 4 }
L:1/8
Q:1/4=108
M:4/4
K:Bb
V:1 treble nm="Bright Piano"
V:2 treble 
V:3 bass nm="Bright Piano"
V:5 bass 
V:4 bass 
V:1
 B,4 D2 F2 | B4 F2 [Fd]2 | [Fd]4 [Ec]2 [DB]2 | [DB]4 [CA]2 z2 | F2 A2 [Fc]2 [Fe]2 | %5
w: Rudolf~Scheurmann * *|||||
 [Fd]4 [FB]2 [EG]2 | [DF]4 [EG]2 [EA]2 | [Ec]4 [DB]2 z2 | [FA]4 [=EG]2 F2 | c2 B2 [FA]2 [FA]2 | %10
w: |||||
 [FG]4 [=EG]2 [EG]2 | F4 z4 | [Ec]4 [DB]2 [DB]2 | [FA]4 [FB]2 [Fd]2 | [Fe]4 [Fd]2 [Ec]2 | %15
w: |||||
 [DB]4 z4 | [Fd]4 [Dc]2 [DB]2 | [Ee]4 [EG]2 [Gc]2 | [Fd]4 [Fd]2 [Ec]2 | [DB]4 z4 |] %20
w: |||||
V:2
 x8 | x8 | x8 | x8 | C4 z4 | x8 | x8 | x8 | x8 | =E4 z4 | x8 | x8 | x8 | x8 | x8 | x8 | x8 | x8 | %18
 x8 | x8 |] %20
V:3
 B,,4 D,2 F,2 | B,4 F,2 B,2 | B,4 F,2 F,2 | F,4 F,2 z2 | A,4 A,2 F,2 | F,4 B,2 B,2 | B,4 F,2 F,2 | %7
 F,4 F,2 z2 | z2 C2 B,2 A,2 | G,2[K:treble] C2 C2 D2 | D4 C2[K:bass] B,2 | A,4 z4 | A,4 B,2 B,2 | %13
 C4 B,2 B,2 | A,2 C2 B,2 A,2 | B,4 z4 | B,4 B,2 B,2 | B,4 B,2 B,2 | B,4 A,2 A,2 | B,4 z4 |] %20
V:4
 z8 | z4 z2 B,,2 | B,,4 A,,2 B,,2 | z4 F,,2 z2 | F,4 F,2 A,,2 | B,,4 D,2 E,2 | F,4 z4 | %7
 B,,4 B,,2 z2 | z4 F,2 F,2 | C,4 F,2 D,2 | B,,4 C,2 C,2 | F,4 z4 | F,4 F,2 F,2 | F,2 E,2 D,2 B,,2 | %14
 F,4 F,2 F,2 | B,,4 z4 | z4 _A,2 A,2 | G,4 E,2 E,2 | F,4 F,2 F,2 | B,,4 z4 |] %20
V:5
 x8 | x8 | x8 | x8 | x8 | x8 | x8 | x8 | F,4 z4 | x2[K:treble] x6 | x6[K:bass] x2 | x8 | x8 | x8 | %14
 x8 | x8 | x8 | x8 | x8 | x8 |] %20

